material/.icons/material/card-bulleted-outline.svg

<svg xmlns="http://www.w3.org/2000/svg" viewBox="0 0 24 24"><path d="M12 15h-2v-2h2v2m6 0h-4v-2h4v2M8 11H6V9h2v2m10 0h-8V9h8v2m2 9H4a2 2 0 01-2-2V6a2 2 0 012-2h16a2 2 0 012 2v12a2 2 0 01-2 2M4 6v12h16V6H4z"/></svg>

<?xml version="1.0" encoding="UTF-8"?><!DOCTYPE svg PUBLIC "-//W3C//DTD SVG 1.1//EN" "http://www.w3.org/Graphics/SVG/1.1/DTD/svg11.dtd"><svg xmlns="http://www.w3.org/2000/svg" xmlns:xlink="http://www.w3.org/1999/xlink" version="1.1" id="mdi-card-bulleted-outline" width="24" height="24" viewBox="0 0 24 24"><path d="M12,15H10V13H12V15M18,15H14V13H18V15M8,11H6V9H8V11M18,11H10V9H18V11M20,20H4A2,2 0 0,1 2,18V6A2,2 0 0,1 4,4H20A2,2 0 0,1 22,6V18A2,2 0 0,1 20,20M4,6V18H20V6H4Z" /></svg>
